X: 24
T:Teviot Brig
M:6/8
L:1/8
C:Alexander Givan of Kelso
S:arr. Barbara McOwen
R:Jig
K:A
f|"A"ecA "A7"E2A|"D"F2A "E"E2F|"A"EFE "F#m"EAc|"Bm7"d2c "E7"Bcd|
"A"ecA "A7"E2A|"D"F2A "A"E2c|!"D"d2f "A"ecA |"E7"B3 "A"A2:|
f|"A"ecA "A7"Ace|"D"fgf fga|"A"ecA "F#m"AcA|"Bm7"BGE "E7"E2f|!
"A"ecA "A7"Ace|"D"agf "A"edc|"D"d2f "A"ecA| "E7"B3 "A"A2 f|
"A"ecA "A7"Ace|"D"fgf fga|!"A"ecA "F#m"AcA|"Bm7"BGE "E7"E2f|
"A"ece "D"fdf|"Bm"agf "C#m"edc|"D"dfa "A"ecA|"E7"B3 "A"A2||
